web-components-icons/e500-image/SVG/decrease-horizontal-spacing.svg

<svg xmlns="http://www.w3.org/2000/svg" viewBox="0 0 512 512"><defs><style>.cls-1{fill-rule:evenodd;}</style></defs><title>decrease-horizontal-spacing</title><g id="decrease_horizontal_spacing" data-name="decrease horizontal spacing"><path class="cls-1" d="M480,96V256H384V192H288V352H192V192H96v96H32V64H96v96h96V0h96V160h96V96ZM111.63,352,89,374.63,146.37,432,89,489.37,111.63,512l80-80ZM288,432l80,80,22.63-22.63L333.25,432l57.38-57.37L368,352Z"/></g></svg>

<?xml version="1.0" encoding="utf-8"?>
<!-- Generator: Adobe Illustrator 24.2.0, SVG Export Plug-In . SVG Version: 6.00 Build 0)  -->
<svg version="1.1" id="Layer_1" xmlns="http://www.w3.org/2000/svg" xmlns:xlink="http://www.w3.org/1999/xlink" x="0px" y="0px"
	 width="512px" height="512px" viewBox="0 0 512 512" xml:space="preserve">
<path d="M480,96v160h-96v-64h-96v160h-96V192H96v96H32V64h64v96h96V0h96v160h96V96H480z M111.6,352L89,374.6l57.4,57.4
	L89,489.4l22.6,22.6l80-80L111.6,352z M288,432l80,80l22.6-22.6L333.3,432l57.4-57.4L368,352L288,432z"/>
</svg>
